X: 2093
T: Mrs MONEYPENNY
C:
Q: "Reel."
R: Reel.
%R: reel
B: James Kerr "Merry Melodies" v.2 p.12 #093
Z: 2016 John Chambers <jc:trillian.mit.edu>
M: C
L: 1/8
K: C
uf |\
ecdB c2(Gc) | EcGc Bddf |\
ecdB cGAF | (E/F/G) Gg (ec)c ::\
e |\
gcec GcEc | Gcec defa |\
gcec gcac |[1 fdBg ecc :|[2 egGf ecc |]
